assets/icons/action/new_custom85.svg

<?xml version="1.0"?><svg xmlns="http://www.w3.org/2000/svg" width="52" height="52" viewBox="0 0 52 52"><g fill="#fff"><path d="m48.4 5.2h-40v-1.6c0-0.9-0.7-1.6-1.6-1.6h-3.2c-0.9 0-1.6 0.7-1.6 1.6v44.8c0 0.9 0.7 1.6 1.6 1.6h3.2c0.9 0 1.6-0.7 1.6-1.6v-36.8h40c0.9 0 1.6-0.7 1.6-1.6v-3.2c0-0.9-0.7-1.6-1.6-1.6z m-3.2 11.2h-27.2c-2.6 0-4.8 2.2-4.8 4.8v17.6c0 2.6 2.2 4.8 4.8 4.8h27.2c2.6 0 4.8-2.2 4.8-4.8v-17.6c0-2.6-2.2-4.8-4.8-4.8z m-4.4 13.6h-2v8c0 0.5-0.3 0.8-0.8 0.8h-3.2c-0.5 0-0.8-0.3-0.8-0.8v-4.8c0-0.5-0.3-0.8-0.8-0.8h-3.2c-0.5 0-0.8 0.3-0.8 0.8v4.8c0 0.5-0.3 0.8-0.8 0.8h-3.2c-0.5 0-0.8-0.3-0.8-0.8v-8h-2c-0.4 0-0.6-0.5-0.2-0.7l9-8.7c0.3-0.2 0.7-0.2 1 0l9 8.7c0.2 0.2 0 0.7-0.4 0.7z"></path></g></svg>

<svg xmlns="http://www.w3.org/2000/svg" x="0px" y="0px"
	 width="52px" height="52px" viewBox="0 0 52 52" enable-background="new 0 0 52 52" xml:space="preserve">
<g>
	<path fill="#FFFFFF" d="M48.4,5.2H21.2h-1.6H8.4V3.6C8.4,2.7,7.7,2,6.8,2H3.6C2.7,2,2,2.7,2,3.6v3.2V10v22.4v3.2v12.8
		C2,49.3,2.7,50,3.6,50h3.2c0.9,0,1.6-0.7,1.6-1.6V35.6v-3.2V11.6h11.2h1.6h27.2c0.9,0,1.6-0.7,1.6-1.6V6.8
		C50,5.9,49.3,5.2,48.4,5.2z"/>
	<path fill="#FFFFFF" d="M45.2,16.4H18c-2.6,0-4.8,2.2-4.8,4.8v17.6c0,2.6,2.2,4.8,4.8,4.8h27.2c2.6,0,4.8-2.2,4.8-4.8V21.2
		C50,18.6,47.8,16.4,45.2,16.4z M40.8,30h-2v8c0,0.5-0.3,0.8-0.8,0.8h-3.2c-0.5,0-0.8-0.3-0.8-0.8v-4.8c0-0.5-0.3-0.8-0.8-0.8H30
		c-0.5,0-0.8,0.3-0.8,0.8V38c0,0.5-0.3,0.8-0.8,0.8h-3.2c-0.5,0-0.8-0.3-0.8-0.8v-8h-2c-0.4,0-0.6-0.5-0.2-0.7l9-8.7
		c0.3-0.2,0.7-0.2,1,0l9,8.7C41.4,29.5,41.2,30,40.8,30z"/>
</g>
</svg>
